!!!OTL: SPRINH AUF FEINS HIRSCHELEIN
!!!ARE: Europa, Mitteleuropa, Deutschland, Hessen, Spessart; Odenwald
!!!SCT: E1453
!!!YEM: Copyright 1995, estate of Helmut Schaffrath.
**kern
*ICvox
*Ivox
*M4/4
*k[f#c#]
*D:
{8d
8f#
=1
4a
4a
4a
4b
=2
4.a
8g
4f#}
{8.a
16dd
=3
4b
4a
4e
4b
=4
4.a
8g
4f#}
{8.a
16g
=5
8f#
8e
8f#
8e
4f#
8.a
16g
=6
8f#
8e
8f#
8e
4f#}
{8.a
16dd
=7
4b
4a
4e
4b
=8
4.a
8g
4f#}
==
!!!AGN: Staende -, Jaeger - Lied
!!!ONB: ESAC (Essen Associative Code) Database: ERK3
!!!AMT: simple quadruple
!!!AIN: vox
!!!EED: Helmut Schaffrath
!!!EEV: 1.0
*-
